;FLAVOR:Marlin
;TIME:9202
;Filament used: 9.37765m
;Layer height: 0.2
;MINX:42.5
;MINY:57.85
;MINZ:0.2
;MAXX:177.5
;MAXY:162.15
;MAXZ:35
;Generated with Cura_SteamEngine main
M140 S50
M105
M190 S50
M104 S200
M105
M109 S200
M82 ;absolute extrusion mode
M201 X500.00 Y500.00 Z100.00 E5000.00 ;Setup machine max acceleration
M203 X500.00 Y500.00 Z10.00 E50.00 ;Setup machine max feedrate
M204 P500.00 R1000.00 T500.00 ;Setup Print/Retract/Travel acceleration
M205 X8.00 Y8.00 Z0.40 E5.00 ;Setup Jerk
M220 S100 ;Reset Feedrate
M221 S100 ;Reset Flowrate

G28 ;Home

G92 E0 ;Reset Extruder
G1 Z2.0 F3000 ;Move Z Axis up
G1 X10.1 Y20 Z0.28 F5000.0 ;Move to start position
G1 X10.1 Y200.0 Z0.28 F1500.0 E15 ;Draw the first line
G1 X10.4 Y200.0 Z0.28 F5000.0 ;Move to side a little
G1 X10.4 Y20 Z0.28 F1500.0 E30 ;Draw the second line
G92 E0 ;Reset Extruder
G1 Z2.0 F3000 ;Move Z Axis up

G92 E0
G92 E0
G1 F2700 E-5
;LAYER_COUNT:175
;LAYER:0
M107
G0 F6000 X47.126 Y59.901 Z0.2
G0 X42.501 Y69.375
;TYPE:SKIRT
G1 F2700 E0
G1 F1200 X42.51 Y68.71 E0.02212
G1 X42.563 Y67.774 E0.0533
G1 X42.695 Y66.845 E0.08451
G1 X42.906 Y65.931 E0.11571
G1 X43.194 Y65.039 E0.14689
G1 X43.557 Y64.174 E0.17809
G1 X43.992 Y63.343 E0.20928
G1 X44.496 Y62.553 E0.24045
G1 X45.066 Y61.808 E0.27165
G1 X45.698 Y61.114 E0.30287
G1 X46.386 Y60.477 E0.33405
G1 X47.126 Y59.901 E0.36524
G1 X47.912 Y59.389 E0.39644
G1 X48.739 Y58.947 E0.42763
G1 X49.601 Y58.577 E0.45883
G1 X50.491 Y58.281 E0.49003
G1 X51.403 Y58.063 E0.52122
G1 X52.33 Y57.922 E0.5524
G1 X53.201 Y57.863 E0.58144
G1 X53.83 Y57.85 E0.60236
G1 X165.951 Y57.851 E4.33152
G1 X166.649 Y57.861 E4.35474
G1 X167.585 Y57.915 E4.38592
G1 X168.513 Y58.047 E4.4171
G1 X169.427 Y58.259 E4.44831
G1 X170.319 Y58.548 E4.47949
G1 X171.184 Y58.911 E4.51069
G1 X172.014 Y59.347 E4.54188
G1 X172.805 Y59.852 E4.57309
G1 X173.549 Y60.423 E4.60428
G1 X174.242 Y61.055 E4.63548
G1 X174.879 Y61.743 E4.66666
G1 X175.454 Y62.484 E4.69786
G1 X175.965 Y63.27 E4.72904
G1 X176.407 Y64.098 E4.76026
G1 X176.776 Y64.96 E4.79145
G1 X177.071 Y65.85 E4.82263
G1 X177.289 Y66.762 E4.85382
G1 X177.429 Y67.69 E4.88503
G1 X177.487 Y68.551 E4.91373
G1 X177.5 Y69.18 E4.93466
G1 X177.499 Y150.55 E7.64104
G1 X177.49 Y151.277 E7.66522
G1 X177.439 Y152.214 E7.69643
G1 X177.307 Y153.142 E7.72761
G1 X177.098 Y154.056 E7.75879
G1 X176.811 Y154.949 E7.78999
G1 X176.449 Y155.815 E7.82121
G1 X176.015 Y156.646 E7.85239
G1 X175.511 Y157.437 E7.88358
G1 X174.942 Y158.182 E7.91476
G1 X174.311 Y158.877 E7.94598
G1 X173.624 Y159.515 E7.97717
G1 X172.885 Y160.092 E8.00835
G1 X172.099 Y160.604 E8.03955
G1 X171.273 Y161.047 E8.07073
G1 X170.411 Y161.419 E8.10195
G1 X169.522 Y161.715 E8.13312
G1 X168.61 Y161.935 E8.16432
G1 X167.683 Y162.076 E8.19551
G1 X166.799 Y162.137 E8.22498
G1 X166.17 Y162.15 E8.2459
G1 X54.065 Y162.149 E11.97453
G1 X53.367 Y162.14 E11.99775
G1 X52.431 Y162.088 E12.02893
G1 X51.502 Y161.956 E12.06014
G1 X50.588 Y161.746 E12.09133
G1 X49.695 Y161.459 E12.12253
G1 X48.83 Y161.096 E12.15373
G1 X47.999 Y160.662 E12.18491
G1 X47.208 Y160.158 E12.2161
G1 X46.463 Y159.588 E12.2473
G1 X45.769 Y158.957 E12.2785
G1 X45.132 Y158.27 E12.30966
G1 X44.555 Y157.53 E12.34087
G1 X44.043 Y156.744 E12.37207
G1 X43.6 Y155.917 E12.40327
G1 X43.229 Y155.056 E12.43446
G1 X42.933 Y154.166 E12.46565
G1 X42.714 Y153.254 E12.49685
G1 X42.573 Y152.327 E12.52804
G1 X42.513 Y151.438 E12.55767
G1 X42.5 Y150.808 E12.57863
G1 X42.501 Y69.375 E15.2871
G0 F6000 X42.901 Y69.381
G1 F1200 X42.91 Y68.716 E15.30922
G1 X42.962 Y67.796 E15.33987
G1 X43.094 Y66.885 E15.37049
G1 X43.305 Y65.989 E15.4011
G1 X43.592 Y65.114 E15.43173
G1 X43.955 Y64.268 E15.46235
G1 X44.389 Y63.456 E15.49297
G1 X44.892 Y62.685 E15.52359
G1 X45.461 Y61.961 E15.55422
G1 X46.089 Y61.289 E15.58481
G1 X46.774 Y60.673 E15.61545
G1 X47.51 Y60.12 E15.64607
G1 X48.291 Y59.632 E15.6767
G1 X49.111 Y59.214 E15.70731
G1 X49.965 Y58.869 E15.73795
G1 X50.845 Y58.599 E15.76856
G1 X51.745 Y58.407 E15.79917
G1 X52.659 Y58.293 E15.8298
G1 X53.212 Y58.263 E15.84822
G1 X53.83 Y58.25 E15.86878
G1 X165.945 Y58.251 E19.59774
G1 X166.643 Y58.261 E19.62096
G1 X167.562 Y58.314 E19.65158
G1 X168.473 Y58.447 E19.6822
G1 X169.369 Y58.658 E19.71282
G1 X170.243 Y58.946 E19.74342
G1 X171.09 Y59.309 E19.77407
G1 X171.901 Y59.744 E19.80468
G1 X172.671 Y60.248 E19.83529
G1 X173.395 Y60.817 E19.86592
G1 X174.067 Y61.447 E19.89655
G1 X174.682 Y62.132 E19.92717
G1 X175.235 Y62.868 E19.95779
G1 X175.722 Y63.649 E19.9884
G1 X176.139 Y64.47 E20.01903
G1 X176.484 Y65.324 E20.04967
G1 X176.753 Y66.204 E20.08027
G1 X176.945 Y67.105 E20.11091
G1 X177.058 Y68.018 E20.14151
G1 X177.087 Y68.562 E20.15963
G1 X177.1 Y69.18 E20.18019
G1 X177.099 Y150.545 E22.8864
G1 X177.09 Y151.272 E22.91058
G1 X177.039 Y152.191 E22.94119
G1 X176.908 Y153.103 E22.97184
G1 X176.698 Y153.999 E23.00245
G1 X176.412 Y154.874 E23.03307
G1 X176.051 Y155.721 E23.06369
G1 X175.617 Y156.533 E23.09431
G1 X175.115 Y157.305 E23.12494
G1 X174.547 Y158.03 E23.15557
G1 X173.919 Y158.703 E23.18619
G1 X173.235 Y159.319 E23.2168
G1 X172.5 Y159.873 E23.24742
G1 X171.72 Y160.362 E23.27804
G1 X170.9 Y160.781 E23.30866
G1 X170.047 Y161.127 E23.33928
G1 X169.167 Y161.398 E23.36991
G1 X168.267 Y161.591 E23.40052
G1 X167.353 Y161.706 E23.43116
G1 X166.788 Y161.737 E23.44998
G1 X166.17 Y161.75 E23.47054
G1 X54.07 Y161.749 E27.199
G1 X53.372 Y161.74 E27.22222
G1 X52.453 Y161.688 E27.25283
G1 X51.542 Y161.557 E27.28344
G1 X50.646 Y161.347 E27.31405
G1 X49.771 Y161.06 E27.34468
G1 X48.924 Y160.698 E27.37532
G1 X48.112 Y160.264 E27.40594
G1 X47.341 Y159.762 E27.43654
G1 X46.616 Y159.194 E27.46717
G1 X45.943 Y158.565 E27.49781
G1 X45.328 Y157.881 E27.52841
G1 X44.774 Y157.146 E27.55902
G1 X44.286 Y156.365 E27.58965
G1 X43.867 Y155.545 E27.62028
G1 X43.521 Y154.692 E27.65089
G1 X43.251 Y153.812 E27.68151
G1 X43.058 Y152.911 E27.71215
G1 X42.944 Y151.998 E27.74276
G1 X42.913 Y151.427 E27.76178
G1 X42.9 Y150.808 E27.78237
G1 X42.901 Y69.381 E30.49064
G0 F6000 X43.301 Y69.386
G1 F1200 X43.31 Y68.721 E30.51276
G1 X43.362 Y67.819 E30.54281
G1 X43.494 Y66.926 E30.57284
G1 X43.704 Y66.048 E30.60286
G1 X43.991 Y65.191 E30.63292
G1 X44.353 Y64.364 E30.66295
G1 X44.786 Y63.572 E30.69297
G1 X45.288 Y62.821 E30.72301
G1 X45.855 Y62.117 E30.75308
G1 X46.481 Y61.467 E30.78309
G1 X47.162 Y60.874 E30.81313
G1 X47.894 Y60.344 E30.84319
G1 X48.669 Y59.881 E30.87321
G1 X49.482 Y59.488 E30.90325
G1 X50.327 Y59.168 E30.9333
G1 X51.196 Y58.925 E30.96331
G1 X52.084 Y58.759 E30.99336
G1 X53.223 Y58.663 E31.03138
G1 X53.83 Y58.65 E31.05157
G1 X165.939 Y58.651 E34.78033
G1 X166.637 Y58.661 E34.80355
G1 X167.539 Y58.714 E34.8336
G1 X168.432 Y58.846 E34.86362
G1 X169.31 Y59.057 E34.89366
G1 X170.166 Y59.345 E34.9237
G1 X170.993 Y59.707 E34.95372
G1 X171.785 Y60.142 E34.98378
G1 X172.536 Y60.644 E35.01382
G1 X173.239 Y61.211 E35.04386
G1 X173.889 Y61.838 E35.0739
G1 X174.481 Y62.52 E35.10394
G1 X175.011 Y63.251 E35.13397
G1 X175.473 Y64.027 E35.164
G1 X175.866 Y64.84 E35.19404
G1 X176.184 Y65.685 E35.22407
G1 X176.427 Y66.555 E35.25411
G1 X176.592 Y67.443 E35.28415
G1 X176.687 Y68.573 E35.32187
G1 X176.7 Y69.18 E35.34206
G1 X176.699 Y150.54 E38.04811
G1 X176.69 Y151.267 E38.07229
G1 X176.639 Y152.169 E38.10234
G1 X176.508 Y153.063 E38.13239
G1 X176.299 Y153.941 E38.16241
G1 X176.013 Y154.798 E38.19246
G1 X175.652 Y155.626 E38.2225
G1 X175.22 Y156.418 E38.25251
G1 X174.719 Y157.17 E38.28256
G1 X174.153 Y157.874 E38.3126
G1 X173.528 Y158.525 E38.34262
G1 X172.847 Y159.119 E38.37268
G1 X172.116 Y159.65 E38.40273
G1 X171.342 Y160.114 E38.43274
G1 X170.529 Y160.508 E38.46279
G1 X169.685 Y160.828 E38.49281
G1 X168.815 Y161.073 E38.52287
G1 X167.928 Y161.239 E38.55289
G1 X166.777 Y161.337 E38.59131
G1 X166.17 Y161.35 E38.6115
G1 X54.075 Y161.349 E42.3398
G1 X53.377 Y161.34 E42.36301
G1 X52.476 Y161.289 E42.39303
G1 X51.582 Y161.157 E42.42309
G1 X50.704 Y160.948 E42.4531
G1 X49.847 Y160.661 E42.48316
G1 X49.02 Y160.3 E42.51318
G1 X48.227 Y159.867 E42.54323
G1 X47.476 Y159.366 E42.57325
G1 X46.772 Y158.8 E42.6033
G1 X46.121 Y158.174 E42.63334
G1 X45.528 Y157.493 E42.66337
G1 X44.998 Y156.762 E42.6934
G1 X44.534 Y155.987 E42.72345
G1 X44.14 Y155.174 E42.75349
G1 X43.82 Y154.33 E42.78352
G1 X43.576 Y153.46 E42.81357
G1 X43.41 Y152.572 E42.84362
G1 X43.313 Y151.417 E42.88217
G1 X43.3 Y150.808 E42.90243
G1 X43.301 Y69.386 E45.61053
G1 F2700 E40.61053
;MESH:case_base.stl
G0 F6000 X52.835 Y69.386
G0 X54.1 Y150.55
;TYPE:WALL-INNER
G1 F2700 E45.61053
G1 F1200 X165.9 Y150.55 E49.32902
G1 X165.9 Y69.45 E52.02641
G1 X54.1 Y69.45 E55.7449
G1 X54.1 Y150.55 E58.44229
G0 F6000 X53.7 Y150.95
;TYPE:WALL-OUTER
G1 F1200 X166.3 Y150.95 E62.18738
G1 X166.3 Y69.05 E64.91139
G1 X53.7 Y69.05 E68.65648
G1 X53.7 Y150.95 E71.38049
G0 F6000 X53.97 Y150.68
G0 X54.2 Y150.19
G0 X54.46 Y150.19
;TYPE:SKIN
G1 F1200 X165.54 Y150.19 E75.07502
G1 X165.54 Y69.81 E77.74847
G1 X54.46 Y69.81 E81.44301
G1 X54.46 Y150.19 E84.11646
G0 F6000 X54.954 Y149.989
G1 F1200 X54.66 Y149.695 E84.13029
G0 F6000 X54.66 Y149.129
G1 F1200 X55.519 Y149.989 E84.17071
G0 F6000 X56.085 Y149.989
G1 F1200 X54.66 Y148.563 E84.23777
G0 F6000 X54.66 Y147.998
G1 F1200 X56.651 Y149.989 E84.33142
G0 F6000 X57.216 Y149.989
G1 F1200 X54.66 Y147.432 E84.45167
G0 F6000 X54.66 Y146.866
G1 F1200 X57.782 Y149.989 E84.59854
G0 F6000 X58.348 Y149.989
G1 F1200 X54.66 Y146.301 E84.77201
G0 F6000 X54.66 Y145.735
G1 F1200 X58.914 Y149.989 E84.97211
G0 F6000 X59.479 Y149.989
G1 F1200 X54.66 Y145.169 E85.1988
G0 F6000 X54.66 Y144.604
G1 F1200 X60.045 Y149.989 E85.45209
G0 F6000 X60.611 Y149.989
G1 F1200 X54.66 Y144.038 E85.73201
G0 F6000 X54.66 Y143.472
G1 F1200 X61.176 Y149.989 E86.03853
G0 F6000 X61.742 Y149.989
G1 F1200 X54.66 Y142.906 E86.37167
G0 F6000 X54.66 Y142.341
G1 F1200 X62.308 Y149.989 E86.7314
G0 F6000 X62.873 Y149.989
G1 F1200 X54.66 Y141.775 E87.11774
G0 F6000 X54.66 Y141.209
G1 F1200 X63.439 Y149.989 E87.5307
G0 F6000 X64.005 Y149.989
G1 F1200 X54.66 Y140.644 E87.97026
G0 F6000 X54.66 Y140.078
G1 F1200 X64.57 Y149.989 E88.43642
G0 F6000 X65.136 Y149.989
G1 F1200 X54.66 Y139.512 E88.92921
G0 F6000 X54.66 Y138.947
G1 F1200 X65.702 Y149.989 E89.44859
G0 F6000 X66.267 Y149.989
G1 F1200 X54.66 Y138.381 E89.99457
G0 F6000 X54.66 Y137.815
G1 F1200 X66.833 Y149.989 E90.56717
G0 F6000 X67.399 Y149.989
G1 F1200 X54.66 Y137.25 E91.16638
G0 F6000 X54.66 Y136.684
G1 F1200 X67.964 Y149.989 E91.79218
G0 F6000 X68.53 Y149.989
G1 F1200 X54.66 Y136.118 E92.4446
G0 F6000 X54.66 Y135.553
G1 F1200 X69.096 Y149.989 E93.12363
G0 F6000 X69.662 Y149.989
G1 F1200 X54.66 Y134.987 E93.82928
G0 F6000 X54.66 Y134.421
G1 F1200 X70.227 Y149.989 E94.56153
G0 F6000 X70.793 Y149.989
G1 F1200 X54.66 Y133.856 E95.32037
G0 F6000 X54.66 Y133.29
G1 F1200 X71.359 Y149.989 E96.10584
G0 F6000 X71.924 Y149.989
G1 F1200 X54.66 Y132.724 E96.91791
G0 F6000 X54.66 Y132.158
G1 F1200 X72.49 Y149.989 E97.7566
G0 F6000 X73.056 Y149.989
G1 F1200 X54.66 Y131.593 E98.62189
G0 F6000 X54.66 Y131.027
G1 F1200 X73.621 Y149.989 E99.51379
G0 F6000 X74.187 Y149.989
G1 F1200 X54.66 Y130.461 E100.4323
G0 F6000 X54.66 Y129.896
G1 F1200 X74.753 Y149.989 E101.37741
G0 F6000 X75.318 Y149.989
G1 F1200 X54.66 Y129.33 E102.34912
G0 F6000 X54.66 Y128.764
G1 F1200 X75.884 Y149.989 E103.34746
G0 F6000 X76.45 Y149.989
G1 F1200 X54.66 Y128.199 E104.3724
G0 F6000 X54.66 Y127.633
G1 F1200 X77.015 Y149.989 E105.42393
G0 F6000 X77.581 Y149.989
G1 F1200 X54.66 Y127.067 E106.50209
G0 F6000 X54.66 Y126.502
G1 F1200 X78.147 Y149.989 E107.60684
G0 F6000 X78.713 Y149.989
G1 F1200 X54.66 Y125.936 E108.73822
G0 F6000 X54.66 Y125.37
G1 F1200 X79.278 Y149.989 E109.8962
G0 F6000 X79.844 Y149.989
G1 F1200 X54.66 Y124.805 E111.08078
G0 F6000 X54.66 Y124.239
G1 F1200 X80.41 Y149.989 E112.29198
G0 F6000 X80.975 Y149.989
G1 F1200 X54.66 Y123.673 E113.52978
G0 F6000 X54.66 Y123.107
G1 F1200 X81.541 Y149.989 E114.7942
G0 F6000 X82.107 Y149.989
G1 F1200 X54.66 Y122.542 E116.08523
G0 F6000 X54.66 Y121.976
G1 F1200 X82.672 Y149.989 E117.40285
G0 F6000 X83.238 Y149.989
G1 F1200 X54.66 Y121.41 E118.74709
G0 F6000 X54.66 Y120.845
G1 F1200 X83.804 Y149.989 E120.11794
G0 F6000 X84.369 Y149.989
G1 F1200 X54.66 Y120.279 E121.51538
G0 F6000 X54.66 Y119.713
G1 F1200 X84.935 Y149.989 E122.93945
G0 F6000 X85.501 Y149.989
G1 F1200 X54.66 Y119.148 E124.39011
G0 F6000 X54.66 Y118.582
G1 F1200 X86.066 Y149.989 E125.86738
G0 F6000 X86.632 Y149.989
G1 F1200 X54.66 Y118.016 E127.37127
G0 F6000 X54.66 Y117.451
G1 F1200 X87.198 Y149.989 E128.90176
G0 F6000 X87.763 Y149.989
G1 F1200 X54.66 Y116.885 E130.45884
G0 F6000 X54.66 Y116.319
G1 F1200 X88.329 Y149.989 E132.04255
G0 F6000 X88.895 Y149.989
G1 F1200 X54.66 Y115.754 E133.65286
G0 F6000 X54.66 Y115.188
G1 F1200 X89.461 Y149.989 E135.2898
G0 F6000 X90.026 Y149.989
G1 F1200 X54.66 Y114.622 E136.95333
G0 F6000 X54.66 Y114.057
G1 F1200 X90.592 Y149.989 E138.64346
G0 F6000 X91.158 Y149.989
G1 F1200 X54.66 Y113.491 E140.36021
G0 F6000 X54.66 Y112.925
G1 F1200 X91.723 Y149.989 E142.10357
G0 F6000 X92.289 Y149.989
G1 F1200 X54.66 Y112.359 E143.87354
G0 F6000 X54.66 Y111.794
G1 F1200 X92.855 Y149.989 E145.67012
G0 F6000 X93.42 Y149.989
G1 F1200 X54.66 Y111.228 E147.49329
G0 F6000 X54.66 Y110.662
G1 F1200 X93.986 Y149.989 E149.34309
G0 F6000 X94.552 Y149.989
G1 F1200 X54.66 Y110.097 E151.21949
G0 F6000 X54.66 Y109.531
G1 F1200 X95.117 Y149.989 E153.12248
G0 F6000 X95.683 Y149.989
G1 F1200 X54.66 Y108.965 E155.0521
G0 F6000 X54.66 Y108.4
G1 F1200 X96.249 Y149.989 E157.00832
G0 F6000 X96.814 Y149.989
G1 F1200 X54.66 Y107.834 E158.99114
G0 F6000 X54.66 Y107.268
G1 F1200 X97.38 Y149.989 E161.00058
G0 F6000 X97.946 Y149.989
G1 F1200 X54.66 Y106.703 E163.03662
G0 F6000 X54.66 Y106.137
G1 F1200 X98.511 Y149.989 E165.09926
G0 F6000 X99.077 Y149.989
G1 F1200 X54.66 Y105.571 E167.18853
G0 F6000 X54.66 Y105.006
G1 F1200 X99.643 Y149.989 E169.30439
G0 F6000 X100.209 Y149.989
G1 F1200 X54.66 Y104.44 E171.44687
G0 F6000 X54.66 Y103.874
G1 F1200 X100.774 Y149.989 E173.61596
G0 F6000 X101.34 Y149.989
G1 F1200 X54.66 Y103.309 E175.81164
G0 F6000 X54.66 Y102.743
G1 F1200 X101.906 Y149.989 E178.03395
G0 F6000 X102.471 Y149.989
G1 F1200 X54.66 Y102.177 E180.28286
G0 F6000 X54.66 Y101.611
G1 F1200 X103.037 Y149.989 E182.55839
G0 F6000 X103.603 Y149.989
G1 F1200 X54.66 Y101.046 E184.86051
G0 F6000 X54.66 Y100.48
G1 F1200 X104.168 Y149.989 E187.18924
G0 F6000 X104.734 Y149.989
G1 F1200 X54.66 Y99.914 E189.54459
G0 F6000 X54.66 Y99.349
G1 F1200 X105.3 Y149.989 E191.92654
G0 F6000 X105.865 Y149.989
G1 F1200 X54.66 Y98.783 E194.33509
G0 F6000 X54.66 Y98.217
G1 F1200 X106.431 Y149.989 E196.77027
G0 F6000 X106.997 Y149.989
G1 F1200 X54.66 Y97.652 E199.23204
G0 F6000 X54.66 Y97.086
G1 F1200 X107.562 Y149.989 E201.72041
G0 F6000 X108.128 Y149.989
G1 F1200 X54.66 Y96.52 E204.2354
G0 F6000 X54.66 Y95.955
G1 F1200 X108.694 Y149.989 E206.777
G0 F6000 X109.26 Y149.989
G1 F1200 X54.66 Y95.389 E209.34521
G0 F6000 X54.66 Y94.823
G1 F1200 X109.825 Y149.989 E211.94003
G0 F6000 X110.391 Y149.989
G1 F1200 X54.66 Y94.258 E214.56145
G0 F6000 X54.66 Y93.692
G1 F1200 X110.957 Y149.989 E217.20948
G0 F6000 X111.522 Y149.989
G1 F1200 X54.66 Y93.126 E219.88412
G0 F6000 X54.66 Y92.56
G1 F1200 X112.088 Y149.989 E222.58538
G0 F6000 X112.654 Y149.989
G1 F1200 X54.66 Y91.995 E225.31324
G0 F6000 X54.66 Y91.429
G1 F1200 X113.219 Y149.989 E228.0677
G0 F6000 X113.785 Y149.989
G1 F1200 X54.66 Y90.863 E230.84878
G0 F6000 X54.66 Y90.298
G1 F1200 X114.351 Y149.989 E233.65647
G0 F6000 X114.916 Y149.989
G1 F1200 X54.66 Y89.732 E236.49075
G0 F6000 X54.66 Y89.166
G1 F1200 X115.482 Y149.989 E239.35165
G0 F6000 X116.048 Y149.989
G1 F1200 X54.66 Y88.601 E242.23915
G0 F6000 X54.66 Y88.035
G1 F1200 X116.613 Y149.989 E245.15326
G0 F6000 X117.179 Y149.989
G1 F1200 X54.66 Y87.469 E248.09398
G0 F6000 X54.66 Y86.904
G1 F1200 X117.745 Y149.989 E251.06131
G0 F6000 X118.31 Y149.989
G1 F1200 X54.66 Y86.338 E254.05523
G0 F6000 X54.66 Y85.772
G1 F1200 X118.876 Y149.989 E257.07578
G0 F6000 X119.442 Y149.989
G1 F1200 X54.66 Y85.207 E260.12293
