;FLAVOR:Marlin
;TIME:61
;Filament used: 0.028901m
;Layer height: 0.2
;MINX:93
;MINY:96
;MINZ:0.2
;MAXX:127
;MAXY:124
;MAXZ:2.6
;Generated with Cura_SteamEngine main
M140 S50
M105
M190 S50
M104 S200
M105
M109 S200
M82 ;absolute extrusion mode
M201 X500.00 Y500.00 Z100.00 E5000.00 ;Setup machine max acceleration
M203 X500.00 Y500.00 Z10.00 E50.00 ;Setup machine max feedrate
M204 P500.00 R1000.00 T500.00 ;Setup Print/Retract/Travel acceleration
M205 X8.00 Y8.00 Z0.40 E5.00 ;Setup Jerk
M220 S100 ;Reset Feedrate
M221 S100 ;Reset Flowrate

G28 ;Home

G92 E0 ;Reset Extruder
G1 Z2.0 F3000 ;Move Z Axis up
G1 X10.1 Y20 Z0.28 F5000.0 ;Move to start position
G1 X10.1 Y200.0 Z0.28 F1500.0 E15 ;Draw the first line
G1 X10.4 Y200.0 Z0.28 F5000.0 ;Move to side a little
G1 X10.4 Y20 Z0.28 F1500.0 E30 ;Draw the second line
G92 E0 ;Reset Extruder
G1 Z2.0 F3000 ;Move Z Axis up

G92 E0
G92 E0
G1 F2700 E-5
;LAYER_COUNT:13
;LAYER:0
M107
G0 F6000 X96.198 Y99.264 Z0.2
G0 X93.001 Y107.525
;TYPE:SKIRT
G1 F2700 E0
G1 F1200 X93.01 Y106.86 E0.02212
G1 X93.063 Y105.924 E0.0533
G1 X93.195 Y104.995 E0.08451
G1 X93.406 Y104.081 E0.11571
G1 X93.694 Y103.189 E0.14689
G1 X94.057 Y102.324 E0.17809
G1 X94.492 Y101.493 E0.20928
G1 X94.996 Y100.703 E0.24045
G1 X95.566 Y99.958 E0.27165
G1 X96.198 Y99.264 E0.30287
G1 X96.886 Y98.627 E0.33405
G1 X97.626 Y98.051 E0.36524
G1 X98.412 Y97.539 E0.39644
G1 X99.239 Y97.097 E0.42763
G1 X100.101 Y96.727 E0.45883
G1 X100.991 Y96.431 E0.49003
G1 X101.903 Y96.213 E0.52122
G1 X102.83 Y96.072 E0.5524
G1 X103.701 Y96.013 E0.58144
G1 X104.33 Y96 E0.60236
G1 X115.451 Y96.001 E0.97225
G1 X116.149 Y96.011 E0.99547
G1 X117.085 Y96.065 E1.02665
G1 X118.013 Y96.197 E1.05783
G1 X118.927 Y96.409 E1.08903
G1 X119.819 Y96.698 E1.12022
G1 X120.684 Y97.061 E1.15142
G1 X121.514 Y97.497 E1.1826
G1 X122.305 Y98.002 E1.21382
G1 X123.049 Y98.573 E1.24501
G1 X123.742 Y99.205 E1.27621
G1 X124.379 Y99.893 E1.30739
G1 X124.954 Y100.634 E1.33859
G1 X125.465 Y101.42 E1.36977
G1 X125.907 Y102.248 E1.40098
G1 X126.276 Y103.11 E1.43217
G1 X126.571 Y104 E1.46336
G1 X126.789 Y104.912 E1.49454
G1 X126.929 Y105.84 E1.52576
G1 X126.987 Y106.701 E1.55446
G1 X127 Y107.33 E1.57539
G1 X126.999 Y112.4 E1.74402
G1 X126.99 Y113.127 E1.7682
G1 X126.939 Y114.064 E1.79941
G1 X126.807 Y114.992 E1.83058
G1 X126.598 Y115.906 E1.86177
G1 X126.311 Y116.799 E1.89297
G1 X125.949 Y117.665 E1.92418
G1 X125.515 Y118.496 E1.95537
G1 X125.011 Y119.287 E1.98656
G1 X124.442 Y120.032 E2.01774
G1 X123.811 Y120.727 E2.04896
G1 X123.124 Y121.365 E2.08015
G1 X122.385 Y121.942 E2.11133
G1 X121.599 Y122.454 E2.14253
G1 X120.773 Y122.897 E2.1737
G1 X119.911 Y123.269 E2.20493
G1 X119.022 Y123.565 E2.23609
G1 X118.11 Y123.785 E2.2673
G1 X117.183 Y123.926 E2.29848
G1 X116.299 Y123.987 E2.32796
G1 X115.67 Y124 E2.34888
G1 X104.565 Y123.999 E2.71824
G1 X103.867 Y123.99 E2.74145
G1 X102.931 Y123.938 E2.77263
G1 X102.002 Y123.806 E2.80384
G1 X101.088 Y123.596 E2.83503
G1 X100.195 Y123.309 E2.86623
G1 X99.33 Y122.946 E2.89743
G1 X98.499 Y122.512 E2.92861
G1 X97.708 Y122.008 E2.95981
G1 X96.963 Y121.438 E2.99101
G1 X96.269 Y120.807 E3.0222
G1 X95.632 Y120.12 E3.05337
G1 X95.055 Y119.38 E3.08458
G1 X94.543 Y118.594 E3.11578
G1 X94.1 Y117.767 E3.14698
G1 X93.729 Y116.906 E3.17816
G1 X93.433 Y116.016 E3.20936
G1 X93.214 Y115.104 E3.24055
G1 X93.073 Y114.177 E3.27174
G1 X93.013 Y113.288 E3.30138
G1 X93 Y112.658 E3.32233
G1 X93.001 Y107.525 E3.49306
G0 F6000 X93.401 Y107.531
G1 F1200 X93.41 Y106.866 E3.51518
G1 X93.462 Y105.946 E3.54583
G1 X93.594 Y105.035 E3.57644
G1 X93.805 Y104.139 E3.60706
G1 X94.092 Y103.264 E3.63769
G1 X94.455 Y102.418 E3.66831
G1 X94.889 Y101.606 E3.69893
G1 X95.392 Y100.835 E3.72955
G1 X95.961 Y100.111 E3.76017
G1 X96.589 Y99.439 E3.79077
G1 X97.274 Y98.823 E3.82141
G1 X98.01 Y98.27 E3.85203
G1 X98.791 Y97.782 E3.88266
G1 X99.611 Y97.364 E3.91327
G1 X100.465 Y97.019 E3.9439
G1 X101.345 Y96.749 E3.97452
G1 X102.245 Y96.557 E4.00513
G1 X103.159 Y96.443 E4.03576
G1 X103.712 Y96.413 E4.05418
G1 X104.33 Y96.4 E4.07474
G1 X115.293 Y96.4 E4.43937
G1 X116.143 Y96.411 E4.46764
G1 X117.062 Y96.464 E4.49826
G1 X117.973 Y96.597 E4.52888
G1 X118.869 Y96.808 E4.5595
G1 X119.743 Y97.096 E4.59011
G1 X120.59 Y97.459 E4.62076
G1 X121.401 Y97.894 E4.65136
G1 X122.171 Y98.398 E4.68197
G1 X122.895 Y98.967 E4.7126
G1 X123.567 Y99.597 E4.74324
G1 X124.182 Y100.282 E4.77386
G1 X124.735 Y101.018 E4.80447
G1 X125.222 Y101.799 E4.83509
G1 X125.639 Y102.62 E4.86571
G1 X125.984 Y103.474 E4.89635
G1 X126.253 Y104.354 E4.92695
G1 X126.445 Y105.255 E4.95759
G1 X126.558 Y106.168 E4.98819
G1 X126.587 Y106.712 E5.00631
G1 X126.6 Y107.33 E5.02687
G1 X126.599 Y112.395 E5.19533
G1 X126.59 Y113.122 E5.21952
G1 X126.539 Y114.041 E5.25013
G1 X126.408 Y114.953 E5.28077
G1 X126.198 Y115.849 E5.31138
G1 X125.912 Y116.724 E5.342
G1 X125.551 Y117.571 E5.37262
G1 X125.117 Y118.383 E5.40325
G1 X124.615 Y119.155 E5.43387
G1 X124.047 Y119.88 E5.46451
G1 X123.419 Y120.553 E5.49512
G1 X122.735 Y121.169 E5.52574
G1 X122 Y121.723 E5.55635
G1 X121.22 Y122.212 E5.58697
G1 X120.4 Y122.631 E5.6176
G1 X119.547 Y122.977 E5.64821
G1 X118.667 Y123.248 E5.67884
G1 X117.767 Y123.441 E5.70945
G1 X116.853 Y123.556 E5.74009
G1 X116.288 Y123.587 E5.75891
G1 X115.67 Y123.6 E5.77947
G1 X104.57 Y123.599 E6.14866
G1 X103.872 Y123.59 E6.17188
G1 X102.953 Y123.538 E6.20249
G1 X102.042 Y123.407 E6.2331
G1 X101.146 Y123.197 E6.26371
G1 X100.271 Y122.91 E6.29434
G1 X99.424 Y122.548 E6.32498
G1 X98.612 Y122.114 E6.3556
G1 X97.841 Y121.612 E6.3862
G1 X97.116 Y121.044 E6.41683
G1 X96.443 Y120.415 E6.44747
G1 X95.828 Y119.731 E6.47807
G1 X95.274 Y118.996 E6.50868
G1 X94.786 Y118.215 E6.53931
G1 X94.367 Y117.395 E6.56994
G1 X94.021 Y116.542 E6.60055
G1 X93.751 Y115.662 E6.63117
G1 X93.558 Y114.761 E6.66182
G1 X93.444 Y113.848 E6.69242
G1 X93.413 Y113.277 E6.71144
G1 X93.4 Y112.658 E6.73203
G1 X93.401 Y107.531 E6.90255
G0 F6000 X93.801 Y107.536
G1 F1200 X93.81 Y106.871 E6.92467
G1 X93.862 Y105.969 E6.95472
G1 X93.994 Y105.076 E6.98475
G1 X94.204 Y104.198 E7.01477
G1 X94.491 Y103.341 E7.04483
G1 X94.853 Y102.514 E7.07486
G1 X95.286 Y101.722 E7.10488
G1 X95.788 Y100.971 E7.13493
G1 X96.355 Y100.267 E7.16499
G1 X96.981 Y99.617 E7.19501
G1 X97.662 Y99.024 E7.22504
G1 X98.394 Y98.494 E7.2551
G1 X99.169 Y98.031 E7.28513
G1 X99.982 Y97.638 E7.31516
G1 X100.827 Y97.318 E7.34521
G1 X101.696 Y97.075 E7.37522
G1 X102.584 Y96.909 E7.40527
G1 X103.723 Y96.813 E7.44329
G1 X104.33 Y96.8 E7.46348
G1 X115.293 Y96.8 E7.82811
G1 X116.137 Y96.811 E7.85619
G1 X117.039 Y96.864 E7.88624
G1 X117.932 Y96.996 E7.91626
G1 X118.81 Y97.207 E7.9463
G1 X119.666 Y97.495 E7.97634
G1 X120.493 Y97.857 E8.00636
G1 X121.285 Y98.292 E8.03642
G1 X122.036 Y98.794 E8.06646
G1 X122.739 Y99.361 E8.0965
G1 X123.389 Y99.988 E8.12654
G1 X123.981 Y100.67 E8.15657
G1 X124.511 Y101.401 E8.18661
G1 X124.973 Y102.177 E8.21664
G1 X125.366 Y102.99 E8.24668
G1 X125.684 Y103.835 E8.27671
G1 X125.927 Y104.705 E8.30675
G1 X126.092 Y105.593 E8.33679
G1 X126.187 Y106.723 E8.37451
G1 X126.2 Y107.33 E8.3947
G1 X126.199 Y112.39 E8.563
G1 X126.19 Y113.117 E8.58718
G1 X126.139 Y114.019 E8.61723
G1 X126.008 Y114.913 E8.64728
G1 X125.799 Y115.791 E8.6773
G1 X125.513 Y116.648 E8.70735
G1 X125.152 Y117.476 E8.73739
G1 X124.72 Y118.268 E8.7674
G1 X124.219 Y119.02 E8.79745
G1 X123.653 Y119.724 E8.82749
G1 X123.028 Y120.375 E8.85751
G1 X122.347 Y120.969 E8.88757
G1 X121.616 Y121.5 E8.91762
G1 X120.842 Y121.964 E8.94763
G1 X120.029 Y122.358 E8.97768
G1 X119.185 Y122.678 E9.0077
G1 X118.315 Y122.923 E9.03776
G1 X117.428 Y123.089 E9.06778
G1 X116.277 Y123.187 E9.1062
G1 X115.67 Y123.2 E9.12639
G1 X104.575 Y123.199 E9.49541
G1 X103.877 Y123.19 E9.51863
G1 X102.976 Y123.139 E9.54865
G1 X102.082 Y123.007 E9.5787
G1 X101.204 Y122.798 E9.60872
G1 X100.347 Y122.511 E9.63878
G1 X99.52 Y122.15 E9.66879
G1 X98.727 Y121.717 E9.69884
G1 X97.976 Y121.216 E9.72887
G1 X97.272 Y120.65 E9.75892
G1 X96.621 Y120.024 E9.78895
G1 X96.028 Y119.343 E9.81899
G1 X95.498 Y118.612 E9.84902
G1 X95.034 Y117.837 E9.87906
G1 X94.64 Y117.024 E9.90911
G1 X94.32 Y116.18 E9.93913
G1 X94.076 Y115.31 E9.96919
G1 X93.91 Y114.422 E9.99923
G1 X93.813 Y113.267 E10.03778
G1 X93.8 Y112.658 E10.05804
G1 X93.801 Y107.536 E10.2284
G1 F2700 E5.2284
;MESH:Funky Amur.stl
G0 F6000 X103.335 Y107.536
G0 X104.6 Y112.4
;TYPE:WALL-INNER
G1 F2700 E10.2284
G1 F1200 X115.4 Y112.4 E10.58761
G1 X115.4 Y107.6 E10.74726
G1 X104.6 Y107.6 E11.10647
G1 X104.6 Y112.4 E11.26612
G0 F6000 X104.2 Y112.8
;TYPE:WALL-OUTER
G1 F1200 X115.8 Y112.8 E11.65194
G1 X115.8 Y107.2 E11.83819
G1 X104.2 Y107.2 E12.22401
G1 X104.2 Y112.8 E12.41027
G0 F6000 X104.47 Y112.53
G0 X104.7 Y112.04
G0 X104.96 Y112.04
;TYPE:SKIN
G1 F1200 X115.04 Y112.04 E12.74553
G1 X115.04 Y107.96 E12.88123
G1 X104.96 Y107.96 E13.21649
G1 X104.96 Y112.04 E13.35219
G0 F6000 X105.617 Y111.839
G1 F1200 X105.16 Y111.382 E13.37369
G0 F6000 X105.16 Y110.817
G1 F1200 X106.182 Y111.839 E13.42176
G0 F6000 X106.748 Y111.839
G1 F1200 X105.16 Y110.251 E13.49646
G0 F6000 X105.16 Y109.685
G1 F1200 X107.314 Y111.839 E13.59777
G0 F6000 X107.879 Y111.839
G1 F1200 X105.16 Y109.12 E13.72567
G0 F6000 X105.16 Y108.554
G1 F1200 X108.445 Y111.839 E13.88018
G0 F6000 X109.011 Y111.839
G1 F1200 X105.331 Y108.159 E14.05328
G0 F6000 X105.897 Y108.159
G1 F1200 X109.576 Y111.839 E14.22635
G0 F6000 X110.142 Y111.839
G1 F1200 X106.462 Y108.159 E14.39945
G0 F6000 X107.028 Y108.159
G1 F1200 X110.708 Y111.839 E14.57254
G0 F6000 X111.273 Y111.839
G1 F1200 X107.594 Y108.159 E14.74562
G0 F6000 X108.159 Y108.159
G1 F1200 X111.839 Y111.839 E14.91871
G0 F6000 X112.405 Y111.839
G1 F1200 X108.725 Y108.159 E15.09181
G0 F6000 X109.291 Y108.159
G1 F1200 X112.97 Y111.839 E15.26488
G0 F6000 X113.536 Y111.839
G1 F1200 X109.856 Y108.159 E15.43798
G0 F6000 X110.422 Y108.159
G1 F1200 X114.102 Y111.839 E15.61107
G0 F6000 X114.667 Y111.839
G1 F1200 X110.988 Y108.159 E15.78414
G0 F6000 X111.553 Y108.159
G1 F1200 X114.839 Y111.444 E15.93868
G0 F6000 X114.839 Y110.879
G1 F1200 X112.119 Y108.159 E16.06662
G0 F6000 X112.685 Y108.159
G1 F1200 X114.839 Y110.313 E16.16794
G0 F6000 X114.839 Y109.747
G1 F1200 X113.25 Y108.159 E16.24266
G0 F6000 X113.816 Y108.159
G1 F1200 X114.839 Y109.182 E16.29078
G0 F6000 X114.839 Y108.616
G1 F1200 X114.382 Y108.159 E16.31227
;MESH:NONMESH
G0 F300 X114.382 Y108.159 Z0.4
G0 F6000 X114.382 Y107.7
G0 X104.772 Y107.772
G0 X104.6 Y112.4
;TIME_ELAPSED:32.606869
;LAYER:1
M106 S85
;TYPE:WALL-INNER
;MESH:Funky Amur.stl
G1 F1118.9 X115.4 Y112.4 E16.67148
G1 X115.4 Y107.6 E16.83113
G1 X104.6 Y107.6 E17.19034
G1 X104.6 Y112.4 E17.34999
G0 F9000 X104.2 Y112.8
;TYPE:WALL-OUTER
G1 F1118.9 X115.8 Y112.8 E17.73581
G1 X115.8 Y107.2 E17.92207
G1 X104.2 Y107.2 E18.30788
G1 X104.2 Y112.8 E18.49414
G0 F9000 X104.47 Y112.53
G0 X104.7 Y112.04
G0 X104.96 Y112.04
;TYPE:SKIN
G1 F1118.9 X115.04 Y112.04 E18.8294
G1 X115.04 Y107.96 E18.9651
G1 X104.96 Y107.96 E19.30037
G1 X104.96 Y112.04 E19.43607
G0 F9000 X104.7 Y112.04
G0 X104.7 Y108.668
G0 X105.16 Y108.668
G1 F1118.9 X105.669 Y108.159 E19.46001
G0 F9000 X106.235 Y108.159
G1 F1118.9 X105.16 Y109.234 E19.51057
G0 F9000 X105.16 Y109.8
G1 F1118.9 X106.8 Y108.159 E19.58774
G0 F9000 X107.366 Y108.159
G1 F1118.9 X105.16 Y110.365 E19.6915
G0 F9000 X105.16 Y110.931
G1 F1118.9 X107.932 Y108.159 E19.82189
G0 F9000 X108.497 Y108.159
G1 F1118.9 X105.16 Y111.497 E19.97887
G0 F9000 X105.383 Y111.839
G1 F1118.9 X109.063 Y108.159 E20.15197
G0 F9000 X109.629 Y108.159
G1 F1118.9 X105.949 Y111.839 E20.32506
G0 F9000 X106.515 Y111.839
G1 F1118.9 X110.194 Y108.159 E20.49814
G0 F9000 X110.76 Y108.159
G1 F1118.9 X107.08 Y111.839 E20.67123
G0 F9000 X107.646 Y111.839
G1 F1118.9 X111.326 Y108.159 E20.84433
G0 F9000 X111.891 Y108.159
G1 F1118.9 X108.212 Y111.839 E21.0174
G0 F9000 X108.777 Y111.839
G1 F1118.9 X112.457 Y108.159 E21.1905
G0 F9000 X113.023 Y108.159
G1 F1118.9 X109.343 Y111.839 E21.36359
G0 F9000 X109.909 Y111.839
G1 F1118.9 X113.588 Y108.159 E21.53667
G0 F9000 X114.154 Y108.159
G1 F1118.9 X110.474 Y111.839 E21.70976
G0 F9000 X111.04 Y111.839
G1 F1118.9 X114.72 Y108.159 E21.88286
G0 F9000 X114.839 Y108.606
G1 F1118.9 X111.606 Y111.839 E22.03493
G0 F9000 X112.171 Y111.839
G1 F1118.9 X114.839 Y109.172 E22.1604
G0 F9000 X114.839 Y109.738
G1 F1118.9 X112.737 Y111.839 E22.25925
G0 F9000 X113.303 Y111.839
G1 F1118.9 X114.839 Y110.303 E22.3315
G0 F9000 X114.839 Y110.869
G1 F1118.9 X113.868 Y111.839 E22.37715
G0 F9000 X114.434 Y111.839
G1 F1118.9 X114.839 Y111.435 E22.39617
;MESH:NONMESH
G0 F300 X114.839 Y111.435 Z0.6
G0 F9000 X115.3 Y111.435
G0 X115.228 Y112.228
G0 X104.6 Y112.4
;TIME_ELAPSED:44.959891
;LAYER:2
M106 S170
;TYPE:WALL-INNER
;MESH:Funky Amur.stl
G1 F1111.5 X115.4 Y112.4 E22.75538
G1 X115.4 Y107.6 E22.91503
G1 X104.6 Y107.6 E23.27424
G1 X104.6 Y112.4 E23.43389
G0 F12000 X104.2 Y112.8
;TYPE:WALL-OUTER
G1 F1111.5 X115.8 Y112.8 E23.81971
G1 X115.8 Y107.2 E24.00596
G1 X104.2 Y107.2 E24.39178
G1 X104.2 Y112.8 E24.57804
G0 F12000 X104.47 Y112.53
G0 X104.7 Y112.04
G0 X104.96 Y112.04
;TYPE:SKIN
G1 F1111.5 X115.04 Y112.04 E24.9133
G1 X115.04 Y107.96 E25.049
G1 X104.96 Y107.96 E25.38426
G1 X104.96 Y112.04 E25.51996
G0 F12000 X105.617 Y111.839
G1 F1111.5 X105.16 Y111.382 E25.54146
G0 F12000 X105.16 Y110.817
G1 F1111.5 X106.182 Y111.839 E25.58953
G0 F12000 X106.748 Y111.839
G1 F1111.5 X105.16 Y110.251 E25.66423
G0 F12000 X105.16 Y109.685
G1 F1111.5 X107.314 Y111.839 E25.76554
G0 F12000 X107.879 Y111.839
G1 F1111.5 X105.16 Y109.12 E25.89344
G0 F12000 X105.16 Y108.554
G1 F1111.5 X108.445 Y111.839 E26.04795
G0 F12000 X109.011 Y111.839
G1 F1111.5 X105.331 Y108.159 E26.22105
G0 F12000 X105.897 Y108.159
G1 F1111.5 X109.576 Y111.839 E26.39412
G0 F12000 X110.142 Y111.839
G1 F1111.5 X106.462 Y108.159 E26.56722
G0 F12000 X107.028 Y108.159
G1 F1111.5 X110.708 Y111.839 E26.74031
G0 F12000 X111.273 Y111.839
G1 F1111.5 X107.594 Y108.159 E26.91339
G0 F12000 X108.159 Y108.159
G1 F1111.5 X111.839 Y111.839 E27.08648
G0 F12000 X112.405 Y111.839
G1 F1111.5 X108.725 Y108.159 E27.25958
G0 F12000 X109.291 Y108.159
G1 F1111.5 X112.97 Y111.839 E27.43265
G0 F12000 X113.536 Y111.839
G1 F1111.5 X109.856 Y108.159 E27.60575
G0 F12000 X110.422 Y108.159
G1 F1111.5 X114.102 Y111.839 E27.77884
G0 F12000 X114.667 Y111.839
G1 F1111.5 X110.988 Y108.159 E27.95191
G0 F12000 X111.553 Y108.159
G1 F1111.5 X114.839 Y111.444 E28.10645
G0 F12000 X114.839 Y110.879
G1 F1111.5 X112.119 Y108.159 E28.23439
G0 F12000 X112.685 Y108.159
G1 F1111.5 X114.839 Y110.313 E28.33571
G0 F12000 X114.839 Y109.747
G1 F1111.5 X113.25 Y108.159 E28.41043
G0 F12000 X113.816 Y108.159
G1 F1111.5 X114.839 Y109.182 E28.45855
G0 F12000 X114.839 Y108.616
G1 F1111.5 X114.382 Y108.159 E28.48004
G1 F2700 E23.48004
;MESH:NONMESH
G0 F300 X114.382 Y108.159 Z2.2
G0 F12000 X114.382 Y107.7
G0 X105.799 Y107.8
G0 X105.799 Y108.798
;TIME_ELAPSED:57.706393
;LAYER:10
M106 S255
;TYPE:WALL-OUTER
;MESH:Funky Amur.stl
G1 F2700 E28.48004
G1 F402.7 X105.799 Y111.002 E28.58927
G1 F2700 E23.58927
G0 F12000 X106.762 Y111.002
G0 X113.837 Y110.999
G0 X114.803 Y110.999
G1 F2700 E28.58927
G1 F400 X114.803 Y108.801 E28.69893
G1 F2700 E23.69893
;MESH:NONMESH
G0 F300 X114.803 Y108.801 Z2.4
G0 F12000 X113.837 Y108.801
G0 X106.762 Y108.698
G0 X105.899 Y108.698
;TIME_ELAPSED:59.694611
;LAYER:11
;TYPE:WALL-OUTER
;MESH:Funky Amur.stl
G1 F2700 E28.69893
G1 F606.1 X105.899 Y111.102 E28.77809
G1 F2700 E23.77809
G0 F12000 X106.762 Y111.102
G0 X113.837 Y111.099
G0 X114.703 Y111.099
G1 F2700 E28.77809
G1 F600 X114.703 Y108.701 E28.85784
;MESH:NONMESH
G0 F300 X114.703 Y108.701 Z2.6
G0 F12000 X114.603 Y108.601
;TIME_ELAPSED:61.092591
;LAYER:12
;TYPE:WALL-OUTER
;MESH:Funky Amur.stl
G1 F1200 X114.603 Y111.199 E28.90105
;TIME_ELAPSED:61.253641
G1 F2700 E23.90105
M140 S0
M107
G91 ;Relative positioning
G1 E-2 F2700 ;Retract a bit
G1 E-2 Z0.2 F2400 ;Retract and raise Z
G1 X5 Y5 F3000 ;Wipe out
G1 Z10 ;Raise Z more
G90 ;Absolute positioning

G28 X0 Y0 ;Present print
M106 S0 ;Turn-off fan
M104 S0 ;Turn-off hotend
M140 S0 ;Turn-off bed

