;FLAVOR:Marlin
;TIME:208
;Filament used: 0.134779m
;Layer height: 0.2
;MINX:86.5
;MINY:88.1
;MINZ:0.2
;MAXX:133.6
;MAXY:132
;MAXZ:0.6
;Generated with Cura_SteamEngine main
M140 S50
M105
M190 S50
M104 S200
M105
M109 S200
M82 ;absolute extrusion mode
M201 X500.00 Y500.00 Z100.00 E5000.00 ;Setup machine max acceleration
M203 X500.00 Y500.00 Z10.00 E50.00 ;Setup machine max feedrate
M204 P500.00 R1000.00 T500.00 ;Setup Print/Retract/Travel acceleration
M205 X8.00 Y8.00 Z0.40 E5.00 ;Setup Jerk
M220 S100 ;Reset Feedrate
M221 S100 ;Reset Flowrate

G28 ;Home

G92 E0 ;Reset Extruder
G1 Z2.0 F3000 ;Move Z Axis up
G1 X10.1 Y20 Z0.28 F5000.0 ;Move to start position
G1 X10.1 Y200.0 Z0.28 F1500.0 E15 ;Draw the first line
G1 X10.4 Y200.0 Z0.28 F5000.0 ;Move to side a little
G1 X10.4 Y20 Z0.28 F1500.0 E30 ;Draw the second line
G92 E0 ;Reset Extruder
G1 Z2.0 F3000 ;Move Z Axis up

G92 E0
G92 E0
G1 F2700 E-5
;LAYER_COUNT:3
;LAYER:0
M107
G0 F6000 X89.694 Y91.368 Z0.2
G0 X86.501 Y99.654
;TYPE:SKIRT
G1 F2700 E0
G1 F1200 X86.51 Y98.965 E0.02292
G1 X86.562 Y98.029 E0.0541
G1 X86.694 Y97.1 E0.08531
G1 X86.904 Y96.186 E0.1165
G1 X87.192 Y95.294 E0.14767
G1 X87.554 Y94.429 E0.17886
G1 X87.989 Y93.598 E0.21006
G1 X88.493 Y92.807 E0.24125
G1 X89.063 Y92.062 E0.27245
G1 X89.694 Y91.368 E0.30365
G1 X90.382 Y90.73 E0.33486
G1 X91.121 Y90.154 E0.36602
G1 X91.907 Y89.642 E0.39722
G1 X92.734 Y89.199 E0.42843
G1 X93.596 Y88.829 E0.45963
G1 X94.486 Y88.533 E0.49082
G1 X95.398 Y88.314 E0.52202
G1 X96.325 Y88.173 E0.5532
G1 X97.201 Y88.113 E0.58241
G1 X97.83 Y88.1 E0.60333
G1 X108.793 Y88.1 E0.96796
G1 X109.655 Y88.111 E0.99664
G1 X110.81 Y88.156 E1.03508
G1 X111.908 Y88.218 E1.07166
G1 X114.495 Y88.291 E1.15774
G1 X115.795 Y88.3 E1.20098
G1 X122.051 Y88.301 E1.40905
G1 X122.749 Y88.311 E1.43227
G1 X123.685 Y88.365 E1.46345
G1 X124.613 Y88.497 E1.49463
G1 X125.527 Y88.709 E1.52584
G1 X126.419 Y88.998 E1.55702
G1 X127.284 Y89.361 E1.58822
G1 X128.114 Y89.797 E1.61941
G1 X128.905 Y90.302 E1.65062
G1 X129.649 Y90.873 E1.68181
G1 X130.342 Y91.505 E1.71301
G1 X130.979 Y92.193 E1.74419
G1 X131.554 Y92.934 E1.77539
G1 X132.065 Y93.72 E1.80657
G1 X132.507 Y94.548 E1.83779
G1 X132.876 Y95.41 E1.86897
G1 X133.171 Y96.3 E1.90016
G1 X133.389 Y97.212 E1.93135
G1 X133.529 Y98.14 E1.96256
G1 X133.587 Y99.001 E1.99126
G1 X133.6 Y99.63 E2.01219
G1 X133.599 Y108.549 E2.30884
G1 X133.586 Y109.409 E2.33744
G1 X133.509 Y112.126 E2.42785
G1 X133.5 Y113.419 E2.47085
G1 X133.499 Y120.115 E2.69356
G1 X133.489 Y120.842 E2.71775
G1 X133.436 Y121.779 E2.74896
G1 X133.304 Y122.707 E2.78014
G1 X133.093 Y123.621 E2.81134
G1 X132.804 Y124.513 E2.84252
G1 X132.441 Y125.378 E2.87372
G1 X132.006 Y126.209 E2.90492
G1 X131.501 Y126.999 E2.9361
G1 X130.931 Y127.744 E2.9673
G1 X130.3 Y128.438 E2.9985
G1 X129.611 Y129.075 E3.02971
G1 X128.871 Y129.651 E3.0609
G1 X128.085 Y130.162 E3.09208
G1 X127.258 Y130.604 E3.12327
G1 X126.396 Y130.974 E3.15447
G1 X125.506 Y131.269 E3.18566
G1 X124.594 Y131.488 E3.21685
G1 X123.667 Y131.628 E3.24803
G1 X122.799 Y131.687 E3.27697
G1 X122.17 Y131.7 E3.29789
G1 X117.25 Y131.7 E3.46153
G1 X114.642 Y131.737 E3.54829
G1 X112.124 Y131.844 E3.63211
G1 X111.124 Y131.914 E3.66545
G1 X109.799 Y131.987 E3.70959
G1 X109.17 Y132 E3.73051
G1 X98.065 Y131.999 E4.09987
G1 X97.367 Y131.99 E4.12308
G1 X96.431 Y131.938 E4.15426
G1 X95.502 Y131.806 E4.18547
G1 X94.588 Y131.596 E4.21666
G1 X93.695 Y131.309 E4.24786
G1 X92.83 Y130.946 E4.27906
G1 X91.999 Y130.512 E4.31024
G1 X91.208 Y130.008 E4.34144
G1 X90.463 Y129.438 E4.37264
G1 X89.769 Y128.807 E4.40384
G1 X89.132 Y128.12 E4.435
G1 X88.555 Y127.38 E4.46621
G1 X88.043 Y126.594 E4.49741
G1 X87.6 Y125.767 E4.52861
G1 X87.229 Y124.906 E4.55979
G1 X86.933 Y124.016 E4.59099
G1 X86.714 Y123.104 E4.62218
G1 X86.573 Y122.177 E4.65337
G1 X86.513 Y121.288 E4.68301
G1 X86.5 Y120.657 E4.704
G1 X86.501 Y111.78 E4.99925
G1 X86.508 Y109.769 E5.06614
G1 X86.5 Y108.667 E5.10279
G1 X86.501 Y99.654 E5.40256
G0 F6000 X86.901 Y99.66
G1 F1200 X86.91 Y98.971 E5.42548
G1 X86.962 Y98.051 E5.45613
G1 X87.093 Y97.14 E5.48674
G1 X87.304 Y96.244 E5.51736
G1 X87.591 Y95.369 E5.54798
G1 X87.953 Y94.523 E5.57859
G1 X88.387 Y93.711 E5.60921
G1 X88.889 Y92.939 E5.63984
G1 X89.457 Y92.215 E5.67045
G1 X90.086 Y91.542 E5.70109
G1 X90.771 Y90.927 E5.7317
G1 X91.506 Y90.373 E5.76232
G1 X92.287 Y89.885 E5.79295
G1 X93.107 Y89.466 E5.82358
G1 X93.96 Y89.121 E5.85418
G1 X94.84 Y88.85 E5.8848
G1 X95.74 Y88.658 E5.91541
G1 X96.654 Y88.544 E5.94605
G1 X97.212 Y88.513 E5.96463
G1 X97.83 Y88.5 E5.98519
G1 X108.793 Y88.5 E6.34982
G1 X109.649 Y88.511 E6.3783
G1 X110.939 Y88.563 E6.42124
G1 X111.908 Y88.618 E6.45352
G1 X114.482 Y88.691 E6.53917
G1 X115.792 Y88.7 E6.58274
G1 X122.045 Y88.701 E6.79071
G1 X122.743 Y88.711 E6.81393
G1 X123.662 Y88.764 E6.84455
G1 X124.573 Y88.897 E6.87517
G1 X125.469 Y89.108 E6.90579
G1 X126.343 Y89.396 E6.93639
G1 X127.19 Y89.759 E6.96704
G1 X128.001 Y90.194 E6.99765
G1 X128.771 Y90.698 E7.02826
G1 X129.495 Y91.267 E7.05889
G1 X130.167 Y91.897 E7.08952
G1 X130.782 Y92.582 E7.12014
G1 X131.335 Y93.318 E7.15076
G1 X131.822 Y94.099 E7.18137
G1 X132.239 Y94.92 E7.212
G1 X132.584 Y95.774 E7.24263
G1 X132.853 Y96.654 E7.27324
G1 X133.045 Y97.555 E7.30388
G1 X133.158 Y98.468 E7.33448
G1 X133.187 Y99.012 E7.3526
G1 X133.2 Y99.63 E7.37316
G1 X133.199 Y108.543 E7.66961
G1 X133.186 Y109.398 E7.69805
G1 X133.109 Y112.112 E7.78835
G1 X133.1 Y113.416 E7.83172
G1 X133.099 Y120.11 E8.05437
G1 X133.089 Y120.837 E8.07855
G1 X133.036 Y121.756 E8.10917
G1 X132.904 Y122.667 E8.13978
G1 X132.693 Y123.563 E8.1704
G1 X132.406 Y124.438 E8.20103
G1 X132.043 Y125.284 E8.23164
G1 X131.609 Y126.096 E8.26227
G1 X131.105 Y126.867 E8.2929
G1 X130.537 Y127.591 E8.32351
G1 X129.908 Y128.263 E8.35412
G1 X129.223 Y128.878 E8.38474
G1 X128.487 Y129.431 E8.41536
G1 X127.706 Y129.919 E8.44599
G1 X126.886 Y130.337 E8.4766
G1 X126.032 Y130.682 E8.50724
G1 X125.152 Y130.951 E8.53785
G1 X124.251 Y131.144 E8.56849
G1 X123.338 Y131.257 E8.59909
G1 X122.788 Y131.287 E8.61741
G1 X122.17 Y131.3 E8.63797
G1 X117.244 Y131.3 E8.80181
G1 X114.619 Y131.337 E8.88913
G1 X112.114 Y131.443 E8.97252
G1 X111.101 Y131.515 E9.00629
G1 X109.788 Y131.587 E9.05003
G1 X109.17 Y131.6 E9.07059
G1 X98.07 Y131.599 E9.43978
G1 X97.372 Y131.59 E9.463
G1 X96.453 Y131.538 E9.49361
G1 X95.542 Y131.407 E9.52422
G1 X94.646 Y131.197 E9.55483
G1 X93.771 Y130.91 E9.58546
G1 X92.924 Y130.548 E9.6161
G1 X92.112 Y130.114 E9.64672
G1 X91.341 Y129.612 E9.67732
G1 X90.616 Y129.044 E9.70795
G1 X89.943 Y128.415 E9.73859
G1 X89.328 Y127.731 E9.76918
G1 X88.774 Y126.996 E9.7998
G1 X88.286 Y126.215 E9.83043
G1 X87.867 Y125.395 E9.86105
G1 X87.521 Y124.542 E9.89167
G1 X87.251 Y123.662 E9.92228
G1 X87.058 Y122.761 E9.95293
G1 X86.944 Y121.848 E9.98353
G1 X86.913 Y121.277 E10.00255
G1 X86.9 Y120.657 E10.02318
G1 X86.901 Y111.781 E10.3184
G1 X86.908 Y109.766 E10.38542
G1 X86.9 Y108.664 E10.42207
G1 X86.901 Y99.66 E10.72154
G0 F6000 X87.301 Y99.665
G1 F1200 X87.31 Y98.976 E10.74446
G1 X87.362 Y98.074 E10.77451
G1 X87.493 Y97.181 E10.80453
G1 X87.703 Y96.302 E10.83459
G1 X87.989 Y95.446 E10.86461
G1 X88.351 Y94.618 E10.89466
G1 X88.784 Y93.826 E10.92469
G1 X89.285 Y93.075 E10.95471
G1 X89.851 Y92.371 E10.98476
G1 X90.477 Y91.72 E11.0148
G1 X91.159 Y91.127 E11.04485
G1 X91.89 Y90.597 E11.07489
G1 X92.664 Y90.133 E11.1049
G1 X93.477 Y89.74 E11.13493
G1 X94.322 Y89.42 E11.16499
G1 X95.192 Y89.176 E11.19504
G1 X96.079 Y89.01 E11.22505
G1 X97.223 Y88.913 E11.26324
G1 X97.83 Y88.9 E11.28343
G1 X108.793 Y88.9 E11.64806
G1 X109.936 Y88.919 E11.68609
G1 X110.917 Y88.962 E11.71875
G1 X111.912 Y89.018 E11.75189
G1 X114.466 Y89.091 E11.83687
G1 X115.79 Y89.1 E11.88091
G1 X122.039 Y89.101 E12.08875
G1 X122.737 Y89.111 E12.11197
G1 X123.639 Y89.164 E12.14202
G1 X124.532 Y89.296 E12.17205
G1 X125.41 Y89.507 E12.20208
G1 X126.266 Y89.795 E12.23212
G1 X127.093 Y90.157 E12.26215
G1 X127.885 Y90.592 E12.2922
G1 X128.636 Y91.094 E12.32224
G1 X129.339 Y91.661 E12.35228
G1 X129.989 Y92.288 E12.38232
G1 X130.581 Y92.97 E12.41236
G1 X131.111 Y93.701 E12.44239
G1 X131.573 Y94.477 E12.47243
G1 X131.966 Y95.29 E12.50246
G1 X132.284 Y96.135 E12.53249
G1 X132.527 Y97.005 E12.56254
G1 X132.692 Y97.893 E12.59258
G1 X132.787 Y99.023 E12.63029
G1 X132.8 Y99.63 E12.65049
G1 X132.799 Y108.538 E12.94677
G1 X132.786 Y109.386 E12.97497
G1 X132.709 Y112.097 E13.06518
G1 X132.7 Y113.413 E13.10895
G1 X132.699 Y120.104 E13.33149
G1 X132.689 Y120.831 E13.35568
G1 X132.637 Y121.733 E13.38573
G1 X132.505 Y122.626 E13.41575
G1 X132.294 Y123.505 E13.44582
G1 X132.007 Y124.361 E13.47585
G1 X131.645 Y125.188 E13.50587
G1 X131.211 Y125.98 E13.53591
G1 X130.709 Y126.731 E13.56595
G1 X130.143 Y127.434 E13.59597
G1 X129.516 Y128.085 E13.62603
G1 X128.835 Y128.677 E13.65605
G1 X128.104 Y129.207 E13.68608
G1 X127.328 Y129.67 E13.71613
G1 X126.515 Y130.063 E13.74617
G1 X125.67 Y130.383 E13.77622
G1 X124.801 Y130.626 E13.80623
G1 X123.913 Y130.791 E13.83627
G1 X122.777 Y130.887 E13.87419
G1 X122.17 Y130.9 E13.89438
G1 X117.238 Y130.9 E14.05842
G1 X114.632 Y130.937 E14.14511
G1 X112.067 Y131.046 E14.2305
G1 X111.078 Y131.116 E14.26347
G1 X110.085 Y131.174 E14.29656
G1 X109.457 Y131.196 E14.31746
G1 X98.075 Y131.199 E14.69602
G1 X97.377 Y131.19 E14.71924
G1 X96.476 Y131.139 E14.74926
G1 X95.582 Y131.007 E14.77931
G1 X94.704 Y130.798 E14.80933
G1 X93.847 Y130.511 E14.83939
G1 X93.02 Y130.15 E14.8694
G1 X92.227 Y129.717 E14.89946
G1 X91.476 Y129.216 E14.92948
G1 X90.772 Y128.65 E14.95953
G1 X90.121 Y128.024 E14.98956
G1 X89.528 Y127.343 E15.0196
G1 X88.998 Y126.612 E15.04963
G1 X88.534 Y125.837 E15.07967
G1 X88.14 Y125.024 E15.10972
G1 X87.82 Y124.18 E15.13974
G1 X87.576 Y123.31 E15.1698
G1 X87.41 Y122.422 E15.19984
G1 X87.313 Y121.267 E15.23839
G1 X87.3 Y120.657 E15.25869
G1 X87.301 Y111.782 E15.55387
G1 X87.308 Y109.763 E15.62102
G1 X87.3 Y108.661 E15.65768
G1 X87.301 Y99.665 E15.95688
G1 F2700 E10.95688
;MESH:Funky Amur (1).stl
G0 F6000 X96.835 Y99.665
G0 X108.9 Y108.3
;TYPE:WALL-INNER
G1 F2700 E15.95688
G1 F1200 X108.9 Y99.7 E16.24292
G1 X98.1 Y99.7 E16.60213
G1 X98.1 Y108.3 E16.88817
G1 X108.9 Y108.3 E17.24738
G0 F6000 X109.3 Y108.7
;TYPE:WALL-OUTER
G1 F1200 X109.3 Y99.3 E17.56002
G1 X97.7 Y99.3 E17.94584
G1 X97.7 Y108.7 E18.25849
G1 X109.3 Y108.7 E18.6443
G0 F6000 X109.03 Y108.43
G0 X108.8 Y107.94
G0 X108.54 Y107.94
;TYPE:SKIN
G1 F1200 X108.54 Y100.06 E18.90639
G1 X98.46 Y100.06 E19.24166
G1 X98.46 Y107.94 E19.50375
G1 X108.54 Y107.94 E19.83901
G0 F6000 X108.8 Y107.94
G0 X108.8 Y100.419
G0 X108.339 Y100.419
G1 F1200 X108.179 Y100.259 E19.84653
G0 F6000 X107.613 Y100.259
G1 F1200 X108.339 Y100.985 E19.88068
G0 F6000 X108.339 Y101.551
G1 F1200 X107.048 Y100.259 E19.94143
G0 F6000 X106.482 Y100.259
G1 F1200 X108.339 Y102.116 E20.02878
G0 F6000 X108.339 Y102.682
G1 F1200 X105.916 Y100.259 E20.14275
G0 F6000 X105.351 Y100.259
G1 F1200 X108.339 Y103.248 E20.28332
G0 F6000 X108.339 Y103.813
G1 F1200 X104.785 Y100.259 E20.45049
G0 F6000 X104.219 Y100.259
G1 F1200 X108.339 Y104.379 E20.64428
G0 F6000 X108.339 Y104.945
G1 F1200 X103.654 Y100.259 E20.86467
G0 F6000 X103.088 Y100.259
G1 F1200 X108.339 Y105.51 E21.11166
G0 F6000 X108.339 Y106.076
G1 F1200 X102.522 Y100.259 E21.38528
G0 F6000 X101.957 Y100.259
G1 F1200 X108.339 Y106.642 E21.68549
G0 F6000 X108.339 Y107.207
G1 F1200 X101.391 Y100.259 E22.0123
G0 F6000 X100.825 Y100.259
G1 F1200 X108.304 Y107.739 E22.36411
G0 F6000 X107.739 Y107.739
G1 F1200 X100.259 Y100.259 E22.71595
G0 F6000 X99.694 Y100.259
G1 F1200 X107.173 Y107.739 E23.06776
G0 F6000 X106.607 Y107.739
G1 F1200 X99.128 Y100.259 E23.41958
G0 F6000 X98.659 Y100.356
G1 F1200 X106.041 Y107.739 E23.76683
G0 F6000 X105.476 Y107.739
G1 F1200 X98.659 Y100.922 E24.08748
G0 F6000 X98.659 Y101.488
G1 F1200 X104.91 Y107.739 E24.38151
G0 F6000 X104.344 Y107.739
G1 F1200 X98.659 Y102.053 E24.64893
G0 F6000 X98.659 Y102.619
G1 F1200 X103.779 Y107.739 E24.88976
G0 F6000 X103.213 Y107.739
G1 F1200 X98.659 Y103.185 E25.10397
G0 F6000 X98.659 Y103.75
G1 F1200 X102.647 Y107.739 E25.29158
G0 F6000 X102.082 Y107.739
G1 F1200 X98.659 Y104.316 E25.45258
G0 F6000 X98.659 Y104.882
G1 F1200 X101.516 Y107.739 E25.58697
G0 F6000 X100.95 Y107.739
G1 F1200 X98.659 Y105.448 E25.69473
G0 F6000 X98.659 Y106.013
G1 F1200 X100.385 Y107.739 E25.77592
G0 F6000 X99.819 Y107.739
G1 F1200 X98.659 Y106.579 E25.83048
G0 F6000 X98.659 Y107.145
G1 F1200 X99.253 Y107.739 E25.85842
G1 F2700 E20.85842
G0 F6000 X99.253 Y108.2
G0 X109.086 Y108.486
G0 X111.02 Y108.486
G0 X111.2 Y108.5
;TYPE:WALL-INNER
G1 F2700 E25.85842
G1 F1200 X122 Y108.5 E26.21763
G1 X122 Y99.9 E26.50366
G1 X111.2 Y99.9 E26.86287
G1 X111.2 Y108.5 E27.14891
G0 F6000 X110.8 Y108.9
;TYPE:WALL-OUTER
G1 F1200 X122.4 Y108.9 E27.53473
G1 X122.4 Y99.5 E27.84737
G1 X110.8 Y99.5 E28.23319
G1 X110.8 Y108.9 E28.54584
G0 F6000 X111.07 Y108.63
G0 X111.3 Y108.14
G0 X111.56 Y108.14
;TYPE:SKIN
G1 F1200 X121.64 Y108.14 E28.8811
G1 X121.64 Y100.26 E29.14319
G1 X111.56 Y100.26 E29.47845
G1 X111.56 Y108.14 E29.74054
G0 F6000 X111.899 Y107.939
G1 F1200 X111.759 Y107.799 E29.74713
G0 F6000 X111.759 Y107.234
G1 F1200 X112.465 Y107.939 E29.78031
G0 F6000 X113.031 Y107.939
G1 F1200 X111.759 Y106.668 E29.84012
G0 F6000 X111.759 Y106.102
G1 F1200 X113.596 Y107.939 E29.92653
G0 F6000 X114.162 Y107.939
G1 F1200 X111.759 Y105.537 E30.03953
G0 F6000 X111.759 Y104.971
G1 F1200 X114.728 Y107.939 E30.17916
G0 F6000 X115.293 Y107.939
G1 F1200 X111.759 Y104.405 E30.34539
G0 F6000 X111.759 Y103.84
G1 F1200 X115.859 Y107.939 E30.53822
G0 F6000 X116.425 Y107.939
G1 F1200 X111.759 Y103.274 E30.75767
G0 F6000 X111.759 Y102.708
G1 F1200 X116.99 Y107.939 E31.00372
G0 F6000 X117.556 Y107.939
G1 F1200 X111.759 Y102.142 E31.27639
G0 F6000 X111.759 Y101.577
G1 F1200 X118.122 Y107.939 E31.57566
G0 F6000 X118.687 Y107.939
G1 F1200 X111.759 Y101.011 E31.90154
G0 F6000 X111.773 Y100.46
G1 F1200 X119.253 Y107.939 E32.25335
G0 F6000 X119.819 Y107.939
G1 F1200 X112.339 Y100.46 E32.60516
G0 F6000 X112.905 Y100.46
G1 F1200 X120.384 Y107.939 E32.95695
G0 F6000 X120.95 Y107.939
G1 F1200 X113.47 Y100.46 E33.30876
G0 F6000 X114.036 Y100.46
G1 F1200 X121.439 Y107.862 E33.65695
G0 F6000 X121.439 Y107.297
G1 F1200 X114.602 Y100.46 E33.97855
G0 F6000 X115.167 Y100.46
G1 F1200 X121.439 Y106.731 E34.27354
G0 F6000 X121.439 Y106.165
G1 F1200 X115.733 Y100.46 E34.54191
G0 F6000 X116.299 Y100.46
G1 F1200 X121.439 Y105.6 E34.78368
G0 F6000 X121.439 Y105.034
G1 F1200 X116.864 Y100.46 E34.99885
G0 F6000 X117.43 Y100.46
G1 F1200 X121.439 Y104.468 E35.18739
G0 F6000 X121.439 Y103.902
G1 F1200 X117.996 Y100.46 E35.34932
G0 F6000 X118.562 Y100.46
G1 F1200 X121.439 Y103.337 E35.48464
G0 F6000 X121.439 Y102.771
G1 F1200 X119.127 Y100.46 E35.59337
G0 F6000 X119.693 Y100.46
G1 F1200 X121.439 Y102.205 E35.67547
G0 F6000 X121.439 Y101.64
G1 F1200 X120.259 Y100.46 E35.73098
G0 F6000 X120.824 Y100.46
G1 F1200 X121.439 Y101.074 E35.75988
G1 F2700 E30.75988
G0 F6000 X121.9 Y101.074
G0 X121.828 Y108.328
G0 X111.1 Y108.68
G0 X111.1 Y111.32
G0 X111.1 Y120.1
;TYPE:WALL-INNER
G1 F2700 E35.75988
G1 F1200 X121.9 Y120.1 E36.11909
G1 X121.9 Y111.5 E36.40513
G1 X111.1 Y111.5 E36.76434
G1 X111.1 Y120.1 E37.05037
G0 F6000 X110.7 Y120.5
;TYPE:WALL-OUTER
G1 F1200 X122.3 Y120.5 E37.43619
G1 X122.3 Y111.1 E37.74884
G1 X110.7 Y111.1 E38.13465
G1 X110.7 Y120.5 E38.4473
G0 F6000 X110.97 Y120.23
G0 X111.2 Y119.74
G0 X111.46 Y119.74
;TYPE:SKIN
G1 F1200 X121.54 Y119.74 E38.78256
G1 X121.54 Y111.86 E39.04465
G1 X111.46 Y111.86 E39.37991
G1 X111.46 Y119.74 E39.642
G0 F6000 X112.186 Y119.539
G1 F1200 X111.659 Y119.013 E39.66677
G0 F6000 X111.659 Y118.448
G1 F1200 X112.751 Y119.539 E39.71811
G0 F6000 X113.317 Y119.539
G1 F1200 X111.659 Y117.882 E39.79607
G0 F6000 X111.659 Y117.316
G1 F1200 X113.883 Y119.539 E39.90066
G0 F6000 X114.448 Y119.539
G1 F1200 X111.659 Y116.751 E40.03182
G0 F6000 X111.659 Y116.185
G1 F1200 X115.014 Y119.539 E40.18961
G0 F6000 X115.58 Y119.539
G1 F1200 X111.659 Y115.619 E40.37402
G0 F6000 X111.659 Y115.054
